X: 21071
T: Just Another Fling
R: strathspey
M: 4/4
K: Dmajor
|:d>cB>^A B>cd>B|A<Fd>F F2 E2|d<cB>^A (3Bcd d>B|A<Fd>F E2 D2:|
F<DA>D F<D A2|B>FA>F E2 A>G|F<DA>D F<D A2|B<FA>F D2 (3BAG|
F<DA>D F<DA>D|B<FA>F E2 (3ABc|d<fB>d A<d (3EFG|A>BA<F E2 D2||
K: Dmin
|:d>cB>A B>G D2|A<Fd>F F2 E2|d<cB>A B>Gd>B|1 A<FE>F D2 A>^c:|2 A<FE>F D2 A>g||
f<dA>d f<d A2|B>fA>f e2 (3bag|f<dA>d f<d A2|B<fA>f d2 (3bag|
f<dA>d f<dA>f|B<fA>f e2 (3A=B^c|d<fB>f A<d (3EFG|(3ABA (3GFE D4||

